X: 27083
T: Miss Katie Trotter
R: reel
M: 4/4
K: Gmajor
|:c|BABG DGBd|cBAG FADc|BGBd gfed|1 egfa g2g:|2 egfa g2g2||
f2df gdBG|ceBd Aaag|f2df gdBG|ceAc BGGg|
f2df gdBG|ceBd Aaaf|gdgb fagd|cAdc BGG||

